X: 1
T: Ale is Dear
T: Maighstir Ord
S: MS of unknown origin, in Concord Slow Scottish collection
O: 1848
B: 1848  William Gunn "The Caledonian Repository of Music Adapted for the Bagpipes", Glasgow, 1848, p.22
Z: 2018 John Chambers <jc:trillian.mit.edu>
M: C|
L: 1/8
K: Bdor
e2 |\
"Bm"{g}f2ef B2ce | "Bm"{g}f2ea "A"cAce |\
"Bm"f2ef "G"B2ce | "F#m"faec "Bm"B2Be ||\
"Bm"{g}feef B2ce |
"Bm"{g}feea "A"cAce |\
"Bm"f2ef "G"B2ce | "F#m"faec "Bm"B2B2 |]|\
"Bm"ABBc d2cB | "A"cAAB ABcA |
"Bm"B2Bc d2cB | "F#m"f2ec "Bm"B2B2 ||\
"Bm"ABBc d2cB | "A"cAAB ABcA |\
"G"d2fd "Em"c2ec | "F#m"f2ec "Bm"B2 |]
